X: 37793
T: Sonnich Christensen's
R: reel
M: 4/4
K: Fmajor
Ddd^c dAFD|E2 cE dEcE|Ddd^c da^ga|faec dAFE|
Ddd^c dAFD|E2 cE dEcE|Ddd^c da^ga|faec d^cdf|
g2 ge fedc|ABGF GFDF|AF F2 Acdc|AGGF GBdf|
gage fedc|ABGF GFDF|AF F2 Acdc|AGGF GAFG|

